src/assets/icons/Social/Soundcloud.svg

<?xml version="1.0" encoding="UTF-8"?>
<svg width="24px" height="11px" viewBox="0 0 24 11" version="1.1" xmlns="http://www.w3.org/2000/svg" xmlns:xlink="http://www.w3.org/1999/xlink">
    <!-- Generator: Sketch 61 (89581) - https://sketch.com -->
    <title>🎨 Color</title>
    <desc>Created with Sketch.</desc>
    <defs>
        <path d="M0.805714286,16.375 L1.2,14.7021104 L0.805714286,12.9756494 C0.795918367,12.924513 0.695510204,12.8855519 0.575510204,12.8855519 C0.453061224,12.8855519 0.355102041,12.924513 0.345306122,12.9756494 L0,14.7021104 L0.345306122,16.3725649 C0.355102041,16.4237013 0.453061224,16.4626623 0.575510204,16.4626623 C0.697959184,16.4650974 0.795918367,16.4261364 0.805714286,16.375 Z M3.26693878,17.3003247 L3.6,14.7191558 L3.26693878,10.7232143 C3.25714286,10.6209416 3.1322449,10.5430195 2.98040816,10.5430195 C2.82857143,10.5430195 2.70367347,10.6233766 2.69632653,10.7232143 L2.4,14.7191558 L2.69632653,17.3003247 C2.70367347,17.4001623 2.82857143,17.4805734 2.98040816,17.4805734 C3.1322449,17.4829545 3.25714286,17.4025974 3.26693878,17.3003247 Z M5.72081633,17.2589286 L6,14.7215909 L5.72081633,9.40340909 C5.71346939,9.27922078 5.56408163,9.17938312 5.38285714,9.17938312 C5.19918367,9.17938312 5.0522449,9.27678571 5.04489796,9.40340909 L4.8,14.7215909 L5.04734694,17.2613636 C5.05469388,17.3855519 5.20163265,17.4829545 5.38530612,17.4829545 C5.56653061,17.4805195 5.71346939,17.3831169 5.72081633,17.2589286 Z M8.1722449,17.2224026 L8.4,14.7215909 L8.1722449,9.36444805 C8.16734694,9.21590909 7.99836735,9.10146104 7.7877551,9.10146104 C7.57714286,9.10146104 7.40816327,9.21834416 7.40326531,9.36444805 L7.2,14.7215909 L7.40326531,17.2224026 C7.40816327,17.3685065 7.57714286,17.4853896 7.7877551,17.4853896 C7.99836735,17.4829545 8.16489796,17.3685065 8.1722449,17.2224026 Z M10.6187755,17.1907468 L10.8,14.724026 L10.6187755,8.58035714 C10.6138776,8.41233766 10.4228571,8.27353896 10.1902041,8.27353896 C9.95755102,8.27353896 9.76408163,8.4099026 9.76163265,8.58035714 L9.6,14.7191558 C9.6,14.724026 9.76163265,17.1883117 9.76163265,17.1883117 C9.76653061,17.3538961 9.95755102,17.4926948 10.1902041,17.4926948 C10.4228571,17.4926948 10.6163265,17.3587662 10.6187755,17.1907468 Z M12.3330612,17.4951299 C12.3404082,17.4951299 20.8506122,17.5 20.9069388,17.5 C22.6163265,17.5 24,16.1680195 24,14.5267857 C24,12.8831169 22.6163265,11.5511364 20.9069388,11.5511364 C20.4832653,11.5511364 20.0791837,11.6339286 19.7118367,11.7824675 C19.4669388,9.10146104 17.1281633,7 14.277551,7 C13.5795918,7 12.8987755,7.13149351 12.2987755,7.35551948 C12.0661224,7.44318182 12.002449,7.53084416 12,7.70616883 L12,17.1444805 C12.002449,17.3246753 12.1493878,17.4780844 12.3330612,17.4951299 Z" id="path-1"></path>
    </defs>
    <g id="💟-Symbols" stroke="none" stroke-width="1" fill="none" fill-rule="evenodd">
        <g id="09-Icons-/-Social-/-SoundCloud" transform="translate(0.000000, -7.000000)">
            <mask id="mask-2" fill="white">
                <use xlink:href="#path-1"></use>
            </mask>
            <use id="🎨-Color" fill="#000000" xlink:href="#path-1"></use>
        </g>
    </g>
</svg>

<svg width="24" height="11" viewBox="0 0 24 11" xmlns="http://www.w3.org/2000/svg" xmlns:xlink="http://www.w3.org/1999/xlink"><defs><path d="M.806 16.375l.394-1.673-.394-1.726c-.01-.051-.11-.09-.23-.09-.123 0-.22.039-.23.09L0 14.702l.345 1.67c.01.052.108.09.23.09.123.003.22-.036.23-.087zm2.46.925l.334-2.58-.333-3.997c-.01-.102-.135-.18-.287-.18-.151 0-.276.08-.284.18L2.4 14.72l.296 2.581c.008.1.133.18.284.18.152.003.277-.077.287-.18zm2.455-.041L6 14.722l-.28-5.319c-.007-.124-.156-.224-.337-.224-.184 0-.33.098-.338.224L4.8 14.722l.247 2.54c.008.124.155.221.338.221.182-.002.328-.1.336-.224zm2.451-.037l.228-2.5-.228-5.358c-.005-.148-.174-.263-.384-.263-.21 0-.38.117-.385.263L7.2 14.722l.203 2.5c.005.147.174.263.385.263.21-.002.377-.116.384-.263zm2.447-.031l.181-2.467-.181-6.144c-.005-.168-.196-.306-.429-.306-.232 0-.426.136-.428.306L9.6 14.72l.162 2.468c.005.166.196.305.428.305.233 0 .426-.134.429-.302zm1.714.304l8.574.005c1.71 0 3.093-1.332 3.093-2.973 0-1.644-1.384-2.976-3.093-2.976-.424 0-.828.083-1.195.231C19.467 9.102 17.128 7 14.278 7c-.698 0-1.38.131-1.98.356-.232.087-.296.175-.298.35v9.438c.002.18.15.334.333.351z" id="a"/></defs><use fill="#000" xlink:href="#a" transform="translate(0 -7)" fill-rule="evenodd"/></svg>
